img/icons/software/text-editor.svg

<svg viewBox="0 0 16 16" xmlns="http://www.w3.org/2000/svg"><path d="m4.5 5c-0.276 0-0.5 0.224-0.5 0.5 0 0.276 0.224 0.5 0.5 0.5h7c0.276 0 0.5-0.224 0.5-0.5 0-0.276-0.224-0.5-0.5-0.5h-7z" fill="#000"/><path d="m4 8.5c0-0.276 0.224-0.5 0.5-0.5h7c0.276 0 0.5 0.224 0.5 0.5 0 0.276-0.224 0.5-0.5 0.5h-7c-0.276 0-0.5-0.224-0.5-0.5z" fill="#000"/><path d="m4.5 11c-0.276 0-0.5 0.224-0.5 0.5 0 0.276 0.224 0.5 0.5 0.5h4c0.276 0 0.5-0.224 0.5-0.5 0-0.276-0.224-0.5-0.5-0.5h-4z" fill="#000"/><path d="m3.5 2.44e-4c-0.276 0-0.5 0.224-0.5 0.5v0.683c-0.129 0.0391-0.249 0.0867-0.362 0.144-0.564 0.288-1.02 0.747-1.31 1.31-0.327 0.642-0.327 1.48-0.327 3.16v5.4c0 1.68 0 2.52 0.327 3.16 0.288 0.564 0.747 1.02 1.31 1.31 0.642 0.327 1.48 0.327 3.16 0.327h4.4c1.68 0 2.52 0 3.16-0.327 0.564-0.288 1.02-0.747 1.31-1.31 0.327-0.642 0.327-1.48 0.327-3.16v-5.4c0-1.68 0-2.52-0.327-3.16-0.288-0.564-0.746-1.02-1.31-1.31-0.113-0.0577-0.233-0.105-0.362-0.144v-0.683c0-0.276-0.224-0.5-0.5-0.5s-0.5 0.224-0.5 0.5v0.529c-0.471-0.0288-1.05-0.0288-1.8-0.0288h-0.2v-0.5c0-0.276-0.224-0.5-0.5-0.5s-0.5 0.224-0.5 0.5v0.5h-2v-0.5c0-0.276-0.224-0.5-0.5-0.5s-0.5 0.224-0.5 0.5v0.5h-0.2c-0.747 0-1.33 0-1.8 0.0288v-0.529c0-0.276-0.224-0.5-0.5-0.5zm5.5 2.5v-0.5h-2v0.5c0 0.276-0.224 0.5-0.5 0.5s-0.5-0.224-0.5-0.5v-0.5h-0.2c-0.801 0-1.36 6.8e-4 -1.8 0.0309v0.469c0 0.276-0.224 0.5-0.5 0.5s-0.5-0.224-0.5-0.5v-0.232c-0.334 0.193-0.606 0.479-0.782 0.824-0.0797 0.156-0.145 0.381-0.18 0.819-0.0368 0.45-0.0376 1.03-0.0376 1.89v5.4c0 0.857 7.8e-4 1.44 0.0376 1.89 0.0358 0.438 0.101 0.663 0.18 0.819 0.192 0.376 0.498 0.682 0.874 0.874 0.156 0.0796 0.381 0.145 0.819 0.18 0.45 0.0368 1.03 0.0375 1.89 0.0375h4.4c0.857 0 1.44-7e-4 1.89-0.0375 0.438-0.0358 0.663-0.101 0.819-0.18 0.376-0.192 0.682-0.498 0.874-0.874 0.0797-0.156 0.145-0.381 0.18-0.819 0.0368-0.45 0.0376-1.03 0.0376-1.89v-5.4c0-0.857-8e-4 -1.44-0.0376-1.89-0.0358-0.438-0.101-0.663-0.18-0.819-0.176-0.345-0.448-0.631-0.782-0.824v0.232c0 0.276-0.224 0.5-0.5 0.5s-0.5-0.224-0.5-0.5v-0.469c-0.438-0.0302-0.999-0.0309-1.8-0.0309h-0.2v0.5c0 0.276-0.224 0.5-0.5 0.5s-0.5-0.224-0.5-0.5z" clip-rule="evenodd" fill="#000" fill-rule="evenodd"/></svg>

<svg xmlns="http://www.w3.org/2000/svg" viewBox="0 0 16 16" fill="none">
  <path fill="#000"
    d="M4.5 5a.5.5 0 0 0 0 1h7a.5.5 0 0 0 0-1h-7ZM4 8.5a.5.5 0 0 1 .5-.5h7a.5.5 0 0 1 0 1h-7a.5.5 0 0 1-.5-.5Zm.5 2.5a.5.5 0 0 0 0 1h4a.5.5 0 1 0 0-1h-4Z" />
  <path fill="#000" fill-rule="evenodd"
    d="M3.5 0a.5.5 0 0 0-.5.5v.683c-.13.039-.249.087-.362.144a3 3 0 0 0-1.311 1.311C1 3.28 1 4.12 1 5.8v5.4c0 1.68 0 2.52.327 3.162a3 3 0 0 0 1.311 1.311C3.28 16 4.12 16 5.8 16h4.4c1.68 0 2.52 0 3.162-.327a3 3 0 0 0 1.311-1.31C15 13.72 15 12.88 15 11.2V5.8c0-1.68 0-2.52-.327-3.162a3 3 0 0 0-1.311-1.31A2.191 2.191 0 0 0 13 1.182V.5a.5.5 0 0 0-1 0v.529C11.529 1 10.947 1 10.2 1H10V.5a.5.5 0 0 0-1 0V1H7V.5a.5.5 0 0 0-1 0V1h-.2c-.747 0-1.329 0-1.8.03V.5a.5.5 0 0 0-.5-.5ZM9 2.5V2H7v.5a.5.5 0 1 1-1 0V2h-.2c-.801 0-1.362 0-1.8.031v.47a.5.5 0 1 1-1 0v-.233a2 2 0 0 0-.782.824c-.08.157-.145.38-.18.82C2 4.361 2 4.943 2 5.8v5.4c0 .857 0 1.44.038 1.89.035.438.1.662.18.818a2 2 0 0 0 .874.874c.156.08.38.145.819.18C4.361 15 4.943 15 5.8 15h4.4c.857 0 1.439 0 1.889-.037.438-.036.663-.101.819-.18a2 2 0 0 0 .874-.875c.08-.156.145-.38.18-.819C14 12.64 14 12.057 14 11.2V5.8c0-.856 0-1.439-.038-1.889-.035-.438-.1-.662-.18-.819A2 2 0 0 0 13 2.268V2.5a.5.5 0 0 1-1 0v-.469c-.438-.03-.999-.03-1.8-.03H10v.5a.5.5 0 1 1-1 0Z"
    clip-rule="evenodd" />
</svg>
